X: 1
T: Kings Of Kerry
M: 12/8
L: 1/8
R: slide
K: Gmaj
|: A | B2 B BAG E2 G D2 G | E2 G D2 B A3 AGA |
B2 B BAG E2 G D3 | dBG ABA G3 G2 :|
|: d | g2 g ged e2 g d3 | B2 B BAG A3 ABd |
g2 g ged e2 g d3 |B2 G ABA G3 G2 d :|
